X:1
T:Tulloch Gorum. LW.083
L:1/8
Q:1/2=75
M:2/2
I:linebreak $
K:F
V:1 treble 
V:1
 c | A>F c>F B>E G>B | A>F c>F A>B c>f | B>F c>F B>F G>A | F>f c>B A2 G :| A |$ F>f c>e B>E G2 | %7
 F>f c>f A>f c>f | F>f c>e G>E G>A | F>f c>B A2 G>A | F>f c>e B>E G>A |$ F>f c>d e>f g>f | %12
 e>d c>e B>E G>A | F>f c>B A2 G |] %14
